icon-svg/lightstrip-tv.svg

<svg xmlns="http://www.w3.org/2000/svg" fill="#44739e" viewBox="0 0 24 24"><path d="M4.3 12.6c-.5 0-.8.3-.8.8s.3.8.8.8.9-.4.8-.8c0-.4-.3-.8-.8-.8M4.4 5c-.5 0-.8.3-.8.8s.3.8.8.8.9-.4.8-.8c0-.4-.3-.8-.8-.8m7.9 0c-.5 0-.8.3-.8.8s.3.8.8.8.9-.4.8-.8c0-.4-.3-.8-.8-.8m3.9 0c-.5 0-.8.3-.8.8s.3.8.8.8.9-.4.8-.8c0-.4-.3-.8-.8-.8M8.3 5c-.5 0-.8.3-.8.8s.3.8.8.8.9-.4.8-.8c0-.4-.3-.8-.8-.8M4.4 8.8c-.5 0-.8.3-.8.8s.3.8.8.8.9-.4.8-.8c0-.4-.3-.8-.8-.8m15.8 3.7c-.5 0-.8.3-.8.8s.3.8.8.8.9-.4.8-.8c0-.4-.3-.8-.8-.8m0-7.5c-.5 0-.8.3-.8.8s.3.8.8.8.9-.4.8-.8c0-.4-.3-.8-.8-.8m0 3.8c-.5 0-.8.3-.8.8s.3.8.8.8.9-.4.8-.8c0-.4-.3-.8-.8-.8m1.6-5.4H3c-.6 0-1.2.6-1.2 1.3v10.2c0 .7.5 1.2 1.2 1.2h8.6v2.8h-1.4c-.4 0-.8.3-.8.8s.3.8.8.8h4.4c.4 0 .8-.3.8-.8s-.3-.8-.8-.8h-1.5v-2.8h8.4c.7 0 1.2-.6 1.2-1.2V4.7c0-.3 0-1.3-.9-1.3m-.1 11.5c0 .1-.1.2-.2.2H19c-.2 0-.3 0-.4-.1s-.1-.2-.1-.2V9c0-.6-.2-.9-.4-1.1-.4-.4-.9-.4-1-.4H7.2c-.9 0-1.3.8-1.3 1.3v6c0 .2-.2.3-.2.3H3.1c-.1 0-.2-.1-.2-.2V4.7c0-.1.1-.2.2-.2h18.7v10.4z"/></svg>

<?xml version="1.0" encoding="UTF-8"?>
<svg width="24px" height="24px" viewBox="0 0 24 24" fill="#44739e" version="1.1" xmlns="http://www.w3.org/2000/svg" xmlns:xlink="http://www.w3.org/1999/xlink">
            <path d="M4.3,12.6c-0.5,0-0.8,0.3-0.8,0.8s0.3,0.8,0.8,0.8s0.9-0.4,0.8-0.8C5.1,13,4.8,12.6,4.3,12.6 M4.4,5C3.9,5,3.6,5.3,3.6,5.8s0.3,0.8,0.8,0.8s0.9-0.4,0.8-0.8C5.2,5.4,4.9,5,4.4,5z M12.3,5c-0.5,0-0.8,0.3-0.8,0.8s0.3,0.8,0.8,0.8s0.9-0.4,0.8-0.8C13.1,5.4,12.8,5,12.3,5z M16.2,5c-0.5,0-0.8,0.3-0.8,0.8s0.3,0.8,0.8,0.8c0.5,0,0.9-0.4,0.8-0.8C17,5.4,16.7,5,16.2,5z M8.3,5C7.8,5,7.5,5.3,7.5,5.8s0.3,0.8,0.8,0.8s0.9-0.4,0.8-0.8C9.1,5.4,8.8,5,8.3,5z M4.4,8.8c-0.5,0-0.8,0.3-0.8,0.8s0.3,0.8,0.8,0.8S5.3,10,5.2,9.6C5.2,9.2,4.9,8.8,4.4,8.8z M20.2,12.5c-0.5,0-0.8,0.3-0.8,0.8s0.3,0.8,0.8,0.8s0.9-0.4,0.8-0.8C21,12.9,20.7,12.5,20.2,12.5z M20.2,5c-0.5,0-0.8,0.3-0.8,0.8s0.3,0.8,0.8,0.8s0.9-0.4,0.8-0.8C21,5.4,20.7,5,20.2,5z M20.2,8.8c-0.5,0-0.8,0.3-0.8,0.8s0.3,0.8,0.8,0.8S21.1,10,21,9.6C21,9.2,20.7,8.8,20.2,8.8z M21.8,3.4H3C2.4,3.4,1.8,4,1.8,4.7v10.2c0,0.7,0.5,1.2,1.2,1.2l0.4,0l0,0h8.2v2.8h-1.4c-0.4,0-0.8,0.3-0.8,0.8 s0.3,0.8,0.8,0.8h4.4c0.4,0,0.8-0.3,0.8-0.8s-0.3-0.8-0.8-0.8h-1.5v-2.8h6.2h1.2h1c0.7,0,1.2-0.6,1.2-1.2V4.7 C22.7,4.4,22.7,3.4,21.8,3.4z M21.7,14.9c0,0.1-0.1,0.2-0.2,0.2H19c-0.2,0-0.3,0-0.4-0.1c-0.1-0.1-0.1-0.2-0.1-0.2l0-5.8 c0-0.6-0.2-0.9-0.4-1.1c-0.4-0.4-0.9-0.4-1-0.4c0,0,0,0,0,0H7.2c-0.9,0-1.3,0.8-1.3,1.3l0,6c0,0.2-0.2,0.3-0.2,0.3l-2.6,0 c-0.1,0-0.2-0.1-0.2-0.2V4.7c0-0.1,0.1-0.2,0.2-0.2l18.7,0c0,0.1,0,0.2,0,0.2V14.9z"/>

</svg>
